X: 27271
T: Miss Susan Cooper
R: reel
M: 4/4
K: Gmajor
|:GBAG .E2EG|D2{^A,}B,D G,D{^A,}B,D|DEGA Bd^cd|c2(3(BcB) ADEF|
GBAG EDEG|D2{^A,}B,D G,D{^A,}B,D|DEGA BdcB|ADEF .G2 GF:|
|:EFGA BEEF|GAB^c .d2cB|ADFA dFAd|c2(3(BcB) A2D2|
GBAG .E2EG|D2{^A,}B,D G,D{^A,}B,D|DEGA BdcB|ADEF .G2 GF:|

